X: 332
T: Moldovaneasca
R:
O: Moldovia
Q: 1/4=160
B: German Goldenshteyn "Shpilt klezmorimlach klingen zoln di gesalach" New York 2003 v.3 #322
Z: 2012 John Chambers <jc:trillian.mit.edu>
M: 2/4
L: 1/8
K: Dm
(A{c}BA) |:\
A4 | d3e | f4- | ffef |\
gz fz | ez dz | ^c4- | c(A{c}BA) |
A4 | ^c3d | e4- | e(A{c}BA) |\
Af ed | ^cd ef | d4- |[1 d(A{c}BA) :|[2 dc de ||
|:\
fz cz | dz Bz | cz Az | Gz Fz |\
GA Bc | (AG) (GF) |[1 c4- | ccde :|[2 F4- | F4 ||
|:\
fe_ed | ^c=c=B_B | A3G | (~AG) F2 |\
GA Bc | (~AG) (~GF) |[1 c4- | ccde :|[2 F4- | F(A{c}BA) |]
